resources/badge-audio-playing.svg

<svg xmlns="http://www.w3.org/2000/svg" width="12" height="12" viewBox="0 0 12 12"><defs><path id="audio-12-a" d="M5.70499973,1.54742578 C5.75795864,1.49740557 5.83260727,1.48589108 5.89606106,1.51795472 C5.95951485,1.55001835 6.00012421,1.6197735 5.99999971,1.69649131 L5.99999971,10.3430764 C6.00000338,10.4043271 5.96755833,10.4599813 5.91690828,10.4856061 C5.86625823,10.5112309 5.80666296,10.5021418 5.76428544,10.4623288 L3.49999986,8 L2,8 C1.25,8 1,7.75 1,7 L1,5 C1,4.25 1.25,4 2,4 L3.49999986,4 L5.70499973,1.54742578 Z M7.5,10 C7.22385763,10 7,9.77614237 7,9.5 C7,9.22385763 7.22385763,9 7.5,9 C8.76394389,9 10,7.60819989 10,6 C10,4.39180011 8.76394389,3 7.5,3 C7.22385763,3 7,2.77614237 7,2.5 C7,2.22385763 7.22385763,2 7.5,2 C9.34440217,2 11,3.8642044 11,6 C11,8.1357956 9.34440217,10 7.5,10 Z M7,8.25 C6.72385763,8.25 6.5,8.02614237 6.5,7.75 C6.5,7.47385763 6.72385763,7.25 7,7.25 C7.48685738,7.25 8,6.67220102 8,6 C8,5.32779898 7.48685738,4.75 7,4.75 C6.72385763,4.75 6.5,4.52614237 6.5,4.25 C6.5,3.97385763 6.72385763,3.75 7,3.75 C8.06731566,3.75 9,4.80020327 9,6 C9,7.19979673 8.06731566,8.25 7,8.25 Z"/></defs><g fill="#f4f4f7" fill-rule="evenodd"><mask id="audio-12-b" fill="#f4f4f7"><use href="#audio-12-a"/></mask><g fill="#f4f4f7" fill-opacity="context-fill-opacity" mask="url(#audio-12-b)"><rect width="12" height="12"/></g></g></svg>

<svg width="12" height="12">
  <defs>
    <path id="badge-audio-playing_svg__a" d="M5.705 1.547a.166.166 0 0 1 .191-.029.198.198 0 0 1 .104.178v8.647a.159.159 0 0 1-.083.143.133.133 0 0 1-.153-.024L3.5 8H2c-.75 0-1-.25-1-1V5c0-.75.25-1 1-1h1.5l2.205-2.453ZM7.5 10a.5.5 0 0 1 0-1C8.764 9 10 7.608 10 6S8.764 3 7.5 3a.5.5 0 0 1 0-1C9.344 2 11 3.864 11 6s-1.656 4-3.5 4ZM7 8.25a.5.5 0 0 1 0-1c.487 0 1-.578 1-1.25s-.513-1.25-1-1.25a.5.5 0 0 1 0-1C8.067 3.75 9 4.8 9 6s-.933 2.25-2 2.25Z"/>
  </defs>
  <g fill="#f4f4f7" fill-rule="evenodd">
    <mask id="badge-audio-playing_svg__b" fill="#f4f4f7">
      <use href="#badge-audio-playing_svg__a"/>
    </mask>
    <g fill-opacity="context-fill-opacity" mask="url(#badge-audio-playing_svg__b)">
      <path d="M0 0h12v12H0z"/>
    </g>
  </g>
</svg>
